;FLAVOR:Marlin
;TIME:2265
;Filament used: 1.30849m
;Layer height: 0.2
;MINX:39.2
;MINY:39.225
;MINZ:0.2
;MAXX:195.799
;MAXY:195.776
;MAXZ:2
;Generated with Cura_SteamEngine 5.2.1
M140 S60
M105
M190 S60
M104 S210
M105
M109 S210
M82 ;absolute extrusion mode
; Script based on an original created by tjjfvi (https://github.com/tjjfvi)
; An up-to-date version of the tjjfvi's original script can be found
; here: https://csi.t6.fyi/
; Note - This script will only work in Cura V4.2 and above!
; --- Global Settings
; layer_height = 0.2
; smooth_spiralized_contours = True
; magic_mesh_surface_mode = normal
; machine_extruder_count = 1
; --- Single Extruder Settings
; speed_z_hop = 5
; retraction_amount = 5
; retraction_hop = 0.2
; retraction_hop_enabled = False
; retraction_enable = True
; retraction_speed = 45
; retraction_retract_speed = 45
; retraction_prime_speed = 45
; speed_travel = 150.0

; Ender 3 Custom Start G-code


G92 E0 ; Reset Extruder
G28 ; Home all axes
M420 S1 ; Use the auto levling mesh correction
G1 Z2.0 F3000 ; Move Z Axis up little to prevent scratching of Heat Bed
G1 X0.1 Y20 Z0.3 F5000.0 ; Move to start position
G1 X0.1 Y200.0 Z0.3 F1500.0 E15 ; Draw the first line
G1 X0.4 Y200.0 Z0.3 F5000.0 ; Move to side a little
G1 X0.4 Y20 Z0.3 F1500.0 E30 ; Draw the second line
G92 E0 ; Reset Extruder
G1 Z2.0 F3000 ; Move Z Axis up little to prevent scratching of Heat Bed
G1 X5 Y20 Z0.3 F5000.0 ; Move over to prevent blob squish
G92 E0
G92 E0
G1 F2700 E-5
;LAYER_COUNT:10
;LAYER:0
M107
;MESH:FlatFrameDiffuser-Testbody.stl
G0 F6000 X115.598 Y193.077 Z0.2
;TYPE:WALL-INNER
G1 F2700 E0
G1 F1200 X111.835 Y192.888 E0.12532
G1 X108.083 Y192.512 E0.25073
G1 X104.357 Y191.95 E0.37606
G1 X100.675 Y191.205 E0.50101
G1 X97.009 Y190.272 E0.62683
G1 X93.417 Y189.163 E0.75186
G1 X89.865 Y187.869 E0.8776
G1 X86.406 Y186.411 E1.00245
G1 X83.01 Y184.775 E1.12782
G1 X79.686 Y182.964 E1.25372
G1 X76.47 Y180.998 E1.37909
G1 X73.355 Y178.874 E1.50449
G1 X70.362 Y176.605 E1.62941
G1 X67.476 Y174.184 E1.7547
G1 X64.712 Y171.621 E1.88007
G1 X62.07 Y168.91 E2.00597
G1 X59.575 Y166.082 E2.13141
G1 X57.226 Y163.134 E2.25678
G1 X55.035 Y160.086 E2.38163
G1 X52.981 Y156.907 E2.50751
G1 X51.097 Y153.642 E2.63289
G1 X49.379 Y150.288 E2.75823
G1 X47.83 Y146.852 E2.88359
G1 X46.454 Y143.349 E3.00876
G1 X45.253 Y139.769 E3.13436
G1 X44.232 Y136.139 E3.25978
G1 X43.391 Y132.453 E3.38552
G1 X42.742 Y128.751 E3.51053
G1 X42.274 Y125.012 E3.63586
G1 X41.993 Y121.267 E3.76077
G1 X41.9 Y117.485 E3.8866
G1 X41.994 Y113.717 E4.01196
G1 X42.277 Y109.958 E4.13734
G1 X42.746 Y106.217 E4.26274
G1 X43.399 Y102.518 E4.38767
G1 X44.24 Y98.83 E4.51348
G1 X45.259 Y95.215 E4.6384
G1 X46.46 Y91.642 E4.76378
G1 X47.835 Y88.133 E4.88913
G1 X49.392 Y84.685 E5.01496
G1 X51.112 Y81.329 E5.14038
G1 X52.998 Y78.066 E5.26574
G1 X55.044 Y74.901 E5.39108
G1 X57.244 Y71.84 E5.51646
G1 X59.596 Y68.895 E5.64182
G1 X62.091 Y66.066 E5.76728
G1 X64.724 Y63.369 E5.89264
G1 X67.488 Y60.807 E6.01799
G1 X70.374 Y58.384 E6.14332
G1 X73.381 Y56.109 E6.26873
G1 X76.494 Y53.986 E6.39406
G1 X79.714 Y52.019 E6.51956
G1 X83.023 Y50.219 E6.64484
G1 X86.421 Y48.583 E6.77028
G1 X89.88 Y47.125 E6.89513
G1 X93.431 Y45.831 E7.02083
G1 X97.028 Y44.722 E7.14603
G1 X100.705 Y43.787 E7.27222
G1 X104.386 Y43.045 E7.39711
G1 X108.115 Y42.484 E7.52253
G1 X111.865 Y42.11 E7.64788
G1 X115.601 Y41.923 E7.77229
G1 X119.402 Y41.923 E7.89871
G1 X123.165 Y42.112 E8.02403
G1 X126.917 Y42.488 E8.14945
G1 X130.643 Y43.05 E8.27477
G1 X134.296 Y43.788 E8.39873
G1 X137.991 Y44.728 E8.52554
G1 X141.599 Y45.842 E8.65113
G1 X145.12 Y47.125 E8.77577
G1 X148.594 Y48.589 E8.90116
G1 X152.004 Y50.232 E9.02705
G1 X155.314 Y52.036 E9.15243
G1 X158.53 Y54.002 E9.2778
G1 X161.645 Y56.126 E9.4032
G1 X164.637 Y58.394 E9.52807
G1 X167.522 Y60.815 E9.65334
G1 X170.288 Y63.379 E9.77878
G1 X172.929 Y66.09 E9.90467
G1 X175.424 Y68.917 E10.03007
G1 X177.773 Y71.865 E10.15545
G1 X179.964 Y74.913 E10.2803
G1 X182.018 Y78.091 E10.40615
G1 X183.888 Y81.331 E10.53058
G1 X185.621 Y84.712 E10.65694
G1 X187.17 Y88.147 E10.78227
G1 X188.553 Y91.67 E10.90815
G1 X189.747 Y95.23 E11.03304
G1 X190.768 Y98.86 E11.15846
G1 X191.605 Y102.528 E11.28359
G1 X192.258 Y106.248 E11.40921
G1 X192.726 Y109.987 E11.53454
G1 X193.006 Y113.718 E11.65898
G1 X193.101 Y117.515 E11.78531
G1 X193.008 Y121.253 E11.90968
G1 X192.723 Y125.042 E12.03605
G1 X192.254 Y128.783 E12.16145
G1 X191.603 Y132.472 E12.28605
G1 X190.761 Y136.17 E12.41219
G1 X189.736 Y139.8 E12.53765
G1 X188.541 Y143.358 E12.66248
G1 X187.165 Y146.867 E12.78784
G1 X185.608 Y150.315 E12.91367
G1 X183.888 Y153.669 E13.03904
G1 X182.01 Y156.921 E13.16395
G1 X179.965 Y160.087 E13.2893
G1 X177.756 Y163.16 E13.41518
G1 X175.404 Y166.105 E13.54053
G1 X172.909 Y168.934 E13.66599
G1 X170.276 Y171.631 E13.79136
G1 X167.512 Y174.193 E13.9167
G1 X164.626 Y176.616 E14.04204
G1 X161.619 Y178.891 E14.16745
G1 X158.506 Y181.013 E14.29276
G1 X155.301 Y182.973 E14.41771
G1 X152.004 Y184.768 E14.54257
G1 X148.579 Y186.417 E14.669
G1 X145.107 Y187.879 E14.7943
G1 X141.569 Y189.169 E14.91955
G1 X137.962 Y190.28 E15.04508
G1 X134.295 Y191.213 E15.17093
G1 X130.614 Y191.955 E15.29582
G1 X126.885 Y192.516 E15.42125
G1 X123.135 Y192.89 E15.54659
G1 X119.384 Y193.077 E15.6715
G1 X115.598 Y193.077 E15.79743
G0 F6000 X115.618 Y192.677
;TYPE:WALL-OUTER
G1 F1200 X111.875 Y192.49 E15.92208
G1 X108.143 Y192.116 E16.04682
G1 X104.436 Y191.558 E16.17151
G1 X100.773 Y190.817 E16.29581
G1 X97.127 Y189.89 E16.42093
G1 X93.538 Y188.781 E16.54587
G1 X90.021 Y187.5 E16.67037
G1 X86.566 Y186.044 E16.79507
G1 X83.188 Y184.416 E16.91979
G1 X79.894 Y182.622 E17.04454
G1 X76.695 Y180.667 E17.16924
G1 X73.597 Y178.555 E17.29394
G1 X70.608 Y176.289 E17.4187
G1 X67.741 Y173.884 E17.54316
G1 X64.987 Y171.33 E17.66808
G1 X62.37 Y168.645 E17.79279
G1 X59.888 Y165.833 E17.91754
G1 X57.551 Y162.9 E18.04227
G1 X55.364 Y159.857 E18.16691
G1 X53.327 Y156.707 E18.29168
G1 X51.453 Y153.46 E18.41637
G1 X49.744 Y150.124 E18.54104
G1 X48.202 Y146.706 E18.66575
G1 X46.827 Y143.202 E18.79095
G1 X45.638 Y139.661 E18.91518
G1 X44.622 Y136.05 E19.03995
G1 X43.785 Y132.383 E19.16505
G1 X43.139 Y128.701 E19.28939
G1 X42.673 Y124.982 E19.41405
G1 X42.393 Y121.242 E19.53879
G1 X42.3 Y117.495 E19.66345
G1 X42.393 Y113.747 E19.78815
G1 X42.674 Y110.008 E19.91286
G1 X43.14 Y106.287 E20.03759
G1 X43.789 Y102.607 E20.16187
G1 X44.625 Y98.938 E20.28703
G1 X45.643 Y95.328 E20.41178
G1 X46.832 Y91.788 E20.53599
G1 X48.206 Y88.283 E20.6612
G1 X49.748 Y84.867 E20.78586
G1 X51.458 Y81.529 E20.9106
G1 X53.334 Y78.283 E21.0353
G1 X55.369 Y75.135 E21.15997
G1 X57.557 Y72.09 E21.28469
G1 X59.896 Y69.159 E21.40941
G1 X62.377 Y66.346 E21.53416
G1 X64.996 Y63.663 E21.65886
G1 X67.745 Y61.113 E21.78357
G1 X70.616 Y58.703 E21.90825
G1 X73.607 Y56.439 E22.03301
G1 X76.703 Y54.328 E22.15765
G1 X79.905 Y52.371 E22.28246
G1 X83.197 Y50.579 E22.40713
G1 X86.577 Y48.952 E22.53189
G1 X90.03 Y47.497 E22.65652
G1 X93.549 Y46.213 E22.78111
G1 X97.137 Y45.108 E22.90598
G1 X100.784 Y44.179 E23.03115
G1 X104.446 Y43.441 E23.1554
G1 X108.155 Y42.882 E23.28015
G1 X111.885 Y42.51 E23.40483
G1 X115.621 Y42.323 E23.52924
G1 X119.382 Y42.323 E23.65433
G1 X123.125 Y42.51 E23.77898
G1 X126.857 Y42.884 E23.90373
G1 X130.564 Y43.442 E24.02842
G1 X134.227 Y44.183 E24.15272
G1 X137.873 Y45.11 E24.27784
G1 X141.462 Y46.218 E24.40277
G1 X144.979 Y47.5 E24.52727
G1 X148.434 Y48.956 E24.65198
G1 X151.812 Y50.584 E24.7767
G1 X155.106 Y52.378 E24.90145
G1 X158.305 Y54.333 E25.02614
G1 X161.403 Y56.445 E25.15085
G1 X164.391 Y58.71 E25.27556
G1 X167.258 Y61.115 E25.40002
G1 X170.012 Y63.669 E25.52495
G1 X172.629 Y66.355 E25.64968
G1 X175.111 Y69.166 E25.7744
G1 X177.448 Y72.099 E25.89913
G1 X179.636 Y75.143 E26.02382
G1 X181.672 Y78.291 E26.14851
G1 X183.545 Y81.539 E26.27321
G1 X185.256 Y84.876 E26.39794
G1 X186.798 Y88.293 E26.52263
G1 X188.173 Y91.798 E26.64785
G1 X189.362 Y95.338 E26.77206
G1 X190.378 Y98.949 E26.89682
G1 X191.214 Y102.617 E27.02195
G1 X191.861 Y106.298 E27.14626
G1 X192.327 Y110.017 E27.27092
G1 X192.607 Y113.757 E27.39566
G1 X192.701 Y117.505 E27.52036
G1 X192.607 Y121.253 E27.64506
G1 X192.326 Y124.992 E27.76977
G1 X191.86 Y128.713 E27.8945
G1 X191.21 Y132.393 E28.01879
G1 X190.375 Y136.062 E28.14394
G1 X189.357 Y139.672 E28.26869
G1 X188.168 Y143.212 E28.3929
G1 X186.794 Y146.717 E28.51811
G1 X185.252 Y150.133 E28.64277
G1 X183.542 Y153.469 E28.76745
G1 X181.671 Y156.709 E28.89189
G1 X179.631 Y159.865 E29.01688
G1 X177.443 Y162.91 E29.14159
G1 X175.104 Y165.841 E29.26631
G1 X172.63 Y168.647 E29.39073
G1 X170.004 Y171.337 E29.51577
G1 X167.255 Y173.887 E29.64048
G1 X164.384 Y176.297 E29.76515
G1 X161.393 Y178.561 E29.88992
G1 X158.297 Y180.672 E30.01455
G1 X155.095 Y182.629 E30.13937
G1 X151.803 Y184.421 E30.26403
G1 X148.423 Y186.048 E30.3888
G1 X144.975 Y187.502 E30.51326
G1 X141.451 Y188.787 E30.63802
G1 X137.863 Y189.892 E30.76288
G1 X134.216 Y190.821 E30.88806
G1 X130.554 Y191.559 E31.0123
G1 X126.845 Y192.118 E31.13706
G1 X123.115 Y192.49 E31.26174
G1 X119.379 Y192.677 E31.38615
G1 X115.618 Y192.677 E31.51124
G1 F2700 E26.51124
G0 F6000 X115.589 Y193.177
G0 X115.49 Y195.189
G0 X115.558 Y195.375
;TYPE:WALL-INNER
G1 F2700 E31.51124
G1 F1200 X119.44 Y195.376 E31.64036
G1 X123.321 Y195.181 E31.7696
G1 X127.185 Y194.795 E31.89876
G1 X131.054 Y194.21 E32.02891
G1 X134.86 Y193.439 E32.15807
G1 X138.598 Y192.487 E32.28636
G1 X142.245 Y191.363 E32.41329
G1 X145.959 Y190.015 E32.5447
G1 X149.562 Y188.494 E32.67478
G1 X152.973 Y186.853 E32.80068
G1 X156.425 Y184.976 E32.93137
G1 X159.764 Y182.937 E33.06149
G1 X162.997 Y180.733 E33.19163
G1 X166.069 Y178.405 E33.31983
G1 X169.022 Y175.926 E33.44807
G1 X171.892 Y173.266 E33.57822
G1 X174.604 Y170.484 E33.70744
G1 X177.172 Y167.573 E33.83655
G1 X179.613 Y164.513 E33.96674
G1 X181.879 Y161.359 E34.09591
G1 X183.971 Y158.119 E34.22419
G1 X185.911 Y154.756 E34.35332
G1 X187.685 Y151.299 E34.48255
G1 X189.282 Y147.759 E34.61172
G1 X190.707 Y144.129 E34.74142
G1 X191.937 Y140.461 E34.8701
G1 X192.99 Y136.72 E34.99936
G1 X193.855 Y132.934 E35.12853
G1 X194.529 Y129.109 E35.25771
G1 X195.012 Y125.256 E35.38686
G1 X195.302 Y121.382 E35.51607
G1 X195.398 Y117.528 E35.6443
G1 X195.304 Y113.645 E35.77348
G1 X195.015 Y109.772 E35.90266
G1 X194.529 Y105.889 E36.03281
G1 X193.855 Y102.066 E36.16193
G1 X192.983 Y98.251 E36.29209
G1 X191.939 Y94.54 E36.42031
G1 X190.704 Y90.858 E36.54948
G1 X189.271 Y87.217 E36.67962
G1 X187.685 Y83.701 E36.80791
G1 X185.911 Y80.244 E36.93714
G1 X183.969 Y76.879 E37.06637
G1 X181.847 Y73.595 E37.19641
G1 X179.596 Y70.463 E37.32469
G1 X177.175 Y67.427 E37.45385
G1 X174.605 Y64.514 E37.58305
G1 X171.894 Y61.734 E37.7122
G1 X169.097 Y59.14 E37.83908
G1 X166.069 Y56.597 E37.9706
G1 X162.972 Y54.251 E38.09982
G1 X159.764 Y52.063 E38.22897
G1 X156.474 Y50.053 E38.3572
G1 X153.013 Y48.167 E38.4883
G1 X149.538 Y46.495 E38.61656
G1 X145.959 Y44.985 E38.74576
G1 X142.295 Y43.652 E38.87544
G1 X138.572 Y42.507 E39.00499
G1 X134.833 Y41.555 E39.13332
G1 X131.026 Y40.785 E39.2625
G1 X127.185 Y40.205 E39.3917
G1 X123.321 Y39.819 E39.52086
G1 X119.44 Y39.625 E39.6501
G1 X115.532 Y39.626 E39.78009
G1 X111.681 Y39.819 E39.90833
G1 X107.815 Y40.205 E40.03755
G1 X103.948 Y40.79 E40.16763
G1 X100.14 Y41.561 E40.29686
G1 X96.389 Y42.517 E40.42561
G1 X92.665 Y43.665 E40.55522
G1 X89.043 Y44.985 E40.68344
G1 X85.438 Y46.506 E40.81358
G1 X81.898 Y48.213 E40.94429
G1 X78.527 Y50.051 E41.07199
G1 X75.216 Y52.078 E41.20111
G1 X72.006 Y54.267 E41.33034
G1 X68.914 Y56.611 E41.45939
G1 X65.954 Y59.091 E41.58783
G1 X63.107 Y61.734 E41.71704
G1 X60.396 Y64.514 E41.84619
G1 X57.825 Y67.427 E41.97541
G1 X55.404 Y70.463 E42.10456
G1 X53.137 Y73.618 E42.23378
G1 X51.031 Y76.879 E42.36289
G1 X49.089 Y80.244 E42.49212
G1 X47.315 Y83.701 E42.62135
G1 X45.729 Y87.216 E42.74961
G1 X44.298 Y90.856 E42.8797
G1 X43.061 Y94.539 E43.00892
G1 X42.01 Y98.278 E43.1381
G1 X41.145 Y102.065 E43.2673
G1 X40.471 Y105.889 E43.39645
G1 X39.988 Y109.744 E43.52567
G1 X39.698 Y113.616 E43.65481
G1 X39.6 Y117.5 E43.78403
G1 X39.698 Y121.382 E43.91319
G1 X39.985 Y125.226 E44.0414
G1 X40.471 Y129.109 E44.17155
G1 X41.145 Y132.932 E44.30067
G1 X42.003 Y136.693 E44.42897
G1 X43.059 Y140.447 E44.55868
G1 X44.298 Y144.143 E44.68833
G1 X45.729 Y147.783 E44.81842
G1 X47.315 Y151.299 E44.94671
G1 X49.087 Y154.754 E45.07585
G1 X51.029 Y158.119 E45.20508
G1 X53.153 Y161.403 E45.33516
G1 X55.421 Y164.557 E45.46436
G1 X57.779 Y167.514 E45.59016
G1 X60.396 Y170.484 E45.72182
G1 X63.109 Y173.266 E45.85106
G1 X65.955 Y175.908 E45.98022
G1 X68.929 Y178.403 E46.10933
G1 X72.026 Y180.749 E46.23856
G1 X75.234 Y182.935 E46.36767
G1 X78.574 Y184.975 E46.49784
G1 X81.962 Y186.82 E46.62615
G1 X85.46 Y188.505 E46.75529
G1 X89.054 Y190.022 E46.88504
G1 X92.69 Y191.341 E47.01369
G1 X96.402 Y192.486 E47.14289
G1 X100.165 Y193.445 E47.27205
G1 X103.974 Y194.215 E47.4013
G1 X107.813 Y194.795 E47.53043
G1 X111.679 Y195.181 E47.65966
G1 X115.558 Y195.375 E47.78883
G0 F6000 X115.548 Y195.775
;TYPE:WALL-OUTER
G1 F1200 X119.45 Y195.776 E47.91861
G1 X123.313 Y195.583 E48.04726
G1 X127.235 Y195.192 E48.17835
G1 X131.059 Y194.616 E48.30697
G1 X134.958 Y193.827 E48.43928
G1 X138.706 Y192.872 E48.56792
G1 X142.423 Y191.726 E48.69729
G1 X146.03 Y190.416 E48.82493
G1 X149.702 Y188.87 E48.95745
G1 X153.186 Y187.194 E49.08603
G1 X156.616 Y185.328 E49.21591
G1 X159.981 Y183.273 E49.34705
G1 X163.208 Y181.074 E49.47693
G1 X166.319 Y178.718 E49.60672
G1 X169.308 Y176.207 E49.73656
G1 X172.171 Y173.552 E49.86643
G1 X174.898 Y170.756 E49.99633
G1 X177.479 Y167.83 E50.1261
G1 X179.915 Y164.777 E50.25601
G1 X182.194 Y161.608 E50.38584
G1 X184.313 Y158.327 E50.51574
G1 X186.263 Y154.948 E50.6455
G1 X188.045 Y151.473 E50.77539
G1 X189.651 Y147.915 E50.90523
G1 X191.083 Y144.266 E51.0356
G1 X192.319 Y140.579 E51.16494
G1 X193.378 Y136.819 E51.29486
G1 X194.247 Y133.014 E51.42468
G1 X194.925 Y129.169 E51.55454
G1 X195.41 Y125.296 E51.68436
G1 X195.702 Y121.402 E51.81424
G1 X195.798 Y117.538 E51.94279
G1 X195.704 Y113.635 E52.07265
G1 X195.414 Y109.742 E52.20249
G1 X194.925 Y105.829 E52.33365
G1 X194.247 Y101.986 E52.46344
G1 X193.378 Y98.179 E52.59332
G1 X192.321 Y94.422 E52.72313
G1 X191.08 Y90.721 E52.85296
G1 X189.651 Y87.087 E52.98283
G1 X188.045 Y83.527 E53.11273
G1 X186.263 Y80.052 E53.24262
G1 X184.311 Y76.671 E53.37247
G1 X182.194 Y73.392 E53.50229
G1 X179.915 Y70.221 E53.63217
G1 X177.481 Y67.17 E53.76198
G1 X174.898 Y64.242 E53.89184
G1 X172.173 Y61.448 E54.02165
G1 X169.279 Y58.766 E54.15288
G1 X166.319 Y56.284 E54.28137
G1 X163.206 Y53.926 E54.41125
G1 X159.981 Y51.727 E54.54108
G1 X156.65 Y49.692 E54.67091
G1 X153.221 Y47.824 E54.80078
G1 X149.702 Y46.13 E54.93068
G1 X146.105 Y44.613 E55.06052
G1 X142.423 Y43.272 E55.19086
G1 X138.706 Y42.128 E55.32021
G1 X134.922 Y41.165 E55.45007
G1 X131.096 Y40.391 E55.57991
G1 X127.235 Y39.808 E55.70978
G1 X123.351 Y39.42 E55.8396
G1 X119.45 Y39.225 E55.96951
G1 X115.512 Y39.226 E56.10049
G1 X111.689 Y39.417 E56.2278
G1 X107.765 Y39.808 E56.35896
G1 X103.943 Y40.384 E56.48752
G1 X100.042 Y41.173 E56.61989
G1 X96.308 Y42.124 E56.74805
G1 X92.564 Y43.277 E56.87835
G1 X88.897 Y44.613 E57.00816
G1 X85.298 Y46.13 E57.13806
G1 X81.779 Y47.824 E57.26796
G1 X78.385 Y49.671 E57.39647
G1 X75.021 Y51.727 E57.5276
G1 X71.794 Y53.926 E57.65748
G1 X68.685 Y56.281 E57.78721
G1 X65.69 Y58.791 E57.91718
G1 X62.827 Y61.448 E58.04709
G1 X60.102 Y64.242 E58.1769
G1 X57.519 Y67.17 E58.30676
G1 X55.085 Y70.221 E58.43658
G1 X52.806 Y73.392 E58.56646
G1 X50.689 Y76.671 E58.69627
G1 X48.737 Y80.052 E58.82612
G1 X46.955 Y83.527 E58.95601
G1 X45.349 Y87.087 E59.08591
G1 X43.922 Y90.719 E59.2157
G1 X42.679 Y94.421 E59.34558
G1 X41.622 Y98.179 E59.47542
G1 X40.753 Y101.986 E59.6053
G1 X40.075 Y105.829 E59.73509
G1 X39.59 Y109.704 E59.86498
G1 X39.298 Y113.596 E59.99479
G1 X39.2 Y117.5 E60.12468
G1 X39.298 Y121.402 E60.25451
G1 X39.586 Y125.256 E60.38305
G1 X40.075 Y129.169 E60.51421
